public/images/technologies/bigdata/overview/icon_2.svg

<svg width="66" height="66" viewBox="0 0 66 66" fill="none" xmlns="http://www.w3.org/2000/svg">
<rect x="0.5" y="0.687012" width="65" height="65" rx="8" fill="url(#paint0_linear_37_12734)"/>
<path fill-rule="evenodd" clip-rule="evenodd" d="M14.7641 12.7758C14.3859 12.8847 13.6905 13.5934 13.5861 13.9761C13.5312 14.1774 13.5007 15.4044 13.5005 17.4242L13.5 20.5598L13.7182 20.9775C13.9952 21.5078 14.4586 21.8666 15.0158 21.9823C15.3017 22.0416 16.4223 22.0628 18.4354 22.0468C21.3327 22.0237 21.4398 22.0175 21.7422 21.854C22.1123 21.654 22.4895 21.2696 22.6882 20.8901C22.806 20.665 22.8366 20.3855 22.861 19.3081L22.8908 17.9995H23.6311C24.3516 17.9995 24.3777 17.9932 24.6089 17.762C24.8077 17.5633 24.8385 17.4836 24.798 17.2737C24.7137 16.8372 24.5213 16.7495 23.6476 16.7495H22.875V15.6596C22.875 15.0601 22.8366 14.3907 22.7897 14.1719C22.6764 13.6437 22.3065 13.1747 21.7905 12.9052L21.3728 12.687L18.1981 12.694C16.435 12.6979 14.9081 12.7344 14.7641 12.7758ZM21.341 14.099L21.5469 14.2608V17.3412C21.5469 20.3172 21.5416 20.4267 21.3906 20.5776C21.2397 20.7286 21.1302 20.7339 18.1541 20.7339H15.0738L14.912 20.528C14.7547 20.3281 14.75 20.2379 14.75 17.4067C14.75 14.3616 14.7678 14.1848 15.0909 14.0284C15.1962 13.9774 16.3433 13.9456 18.1965 13.9423C21.0553 13.9372 21.1408 13.9414 21.341 14.099ZM19.3334 15.519C19.2284 15.6157 18.8545 16.1794 18.5025 16.7715L17.8624 17.8482L17.5757 17.6758C17.418 17.5809 17.2012 17.4438 17.0938 17.371C16.7745 17.1548 16.5722 17.123 16.3259 17.2504C16.0741 17.3806 16 17.5134 16 17.8347C16 18.141 16.1017 18.2394 17.0105 18.8131C17.845 19.3397 18.1753 19.4362 18.4386 19.23C18.6016 19.1023 20.2812 16.3314 20.3417 16.0903C20.392 15.8899 20.2683 15.5962 20.0693 15.4434C19.8737 15.2933 19.5416 15.3274 19.3334 15.519ZM26.704 16.9049C26.4655 17.1433 26.469 17.5554 26.7114 17.8042C26.8617 17.9584 26.9927 17.9609 36.8872 17.9995L46.9108 18.0386L47.2931 18.275C47.8681 18.6305 48.1266 19.1003 48.1712 19.8709L48.2068 20.4863L46.8495 20.5125C45.5238 20.5379 45.4835 20.5437 45.1178 20.7587C44.65 21.0336 44.3175 21.4847 44.2087 21.9917C44.1627 22.2065 44.125 22.9605 44.125 23.6674V24.9526H41.248H38.371L38.2011 25.1334C37.9682 25.3814 37.9778 25.7657 38.223 26.0108L38.4148 26.2026H41.2612H44.1077L44.1379 27.3159C44.1666 28.3724 44.1799 28.4505 44.3976 28.847C44.6499 29.3068 45.0792 29.6505 45.5718 29.7873C45.7734 29.8433 46.916 29.8738 48.8178 29.874C52.0676 29.8746 52.2755 29.8497 52.8265 29.394C52.9931 29.2562 53.2126 28.9651 53.314 28.7472C53.4981 28.3518 53.4984 28.3453 53.4992 25.2351C53.4998 23.0151 53.4727 22.0268 53.405 21.7976C53.2782 21.3685 52.631 20.7213 52.2019 20.5945C52.01 20.5378 51.3915 20.4995 50.6682 20.4995H49.4562L49.4244 19.7769C49.398 19.1758 49.3527 18.9687 49.1548 18.5462C48.8502 17.8958 48.2948 17.3393 47.6409 17.0294L47.1328 16.7886L36.997 16.7682C26.933 16.7479 26.86 16.7489 26.704 16.9049ZM51.8862 21.8362C51.9909 21.884 52.1155 22.0087 52.1633 22.1133C52.2219 22.242 52.25 23.2489 52.25 25.2192C52.25 28.0504 52.2453 28.1406 52.088 28.3405L51.9262 28.5464H48.8459C45.8698 28.5464 45.7603 28.5411 45.6094 28.3901C45.4584 28.2392 45.4531 28.1297 45.4531 25.1537V22.0733L45.659 21.9115C45.8589 21.7542 45.9491 21.7495 48.7803 21.7495C50.7506 21.7495 51.7575 21.7776 51.8862 21.8362ZM50.0445 23.3094C49.9371 23.3939 49.5808 23.9124 49.2527 24.4617C48.9245 25.011 48.6239 25.5104 48.5846 25.5715C48.5265 25.662 48.4202 25.6221 48.0129 25.3567C47.3988 24.9566 47.0352 24.921 46.787 25.2366C46.4293 25.6912 46.5877 25.9379 47.6864 26.6384C48.6074 27.2256 48.8657 27.2851 49.1568 26.9774C49.255 26.8736 49.7098 26.1674 50.1677 25.4082C51.0776 23.8992 51.1445 23.6838 50.8082 23.3476C50.5766 23.1159 50.3075 23.1025 50.0445 23.3094ZM32.0407 24.3424C31.8223 24.4479 31.7367 24.6732 31.5857 25.5386C31.4455 26.3422 31.3577 26.5931 31.2165 26.5937C31.048 26.5943 30.0455 27.1367 29.6166 27.4592C29.3929 27.6275 29.1873 27.7651 29.1599 27.7651C29.1325 27.7651 28.7109 27.6194 28.2233 27.4415C27.0141 27 27.0534 26.98 26.1965 28.4751C25.8306 29.1136 25.5325 29.6984 25.534 29.7747C25.539 30.0226 25.7151 30.2351 26.3811 30.7966L27.0356 31.3484V32.687V34.0256L26.3811 34.5793C25.622 35.2214 25.5371 35.3196 25.5337 35.5602C25.5323 35.658 25.8306 36.2604 26.1965 36.8989C27.052 38.3915 27.0109 38.3706 28.2172 37.9315C28.7045 37.754 29.1273 37.6089 29.1566 37.6089C29.1859 37.6089 29.3929 37.7465 29.6166 37.9148C30.0402 38.2333 31.0473 38.7797 31.2121 38.7804C31.3629 38.781 31.4408 39.0015 31.5781 39.8159C31.7298 40.7164 31.812 40.9216 32.067 41.0378C32.3209 41.1535 34.6791 41.1535 34.933 41.0378C35.1878 40.9217 35.2502 40.7605 35.4141 39.7964C35.4907 39.3452 35.5923 38.9377 35.64 38.8908C35.6876 38.8439 35.9199 38.7256 36.1562 38.6279C36.5059 38.4834 37.1554 38.0882 37.749 37.6587C37.8064 37.6172 38.1908 37.7187 38.7528 37.9239C39.9778 38.3711 39.9256 38.397 40.7929 36.9083C41.1646 36.2702 41.4675 35.6834 41.466 35.6043C41.461 35.3479 41.2853 35.1358 40.6193 34.5829L39.9652 34.0397L39.9552 32.6955L39.9453 31.3513L40.6223 30.7887C41.269 30.2513 41.4688 30.0065 41.4688 29.7515C41.4688 29.6879 41.1694 29.1136 40.8035 28.4751C39.9445 26.9762 39.9895 26.9987 38.7528 27.4501C38.1908 27.6553 37.8064 27.7569 37.749 27.7153C37.1554 27.2858 36.5059 26.8906 36.1562 26.7461C35.9199 26.6484 35.6876 26.5301 35.64 26.4833C35.5923 26.4363 35.4907 26.0288 35.4141 25.5776C35.2502 24.6135 35.1878 24.4523 34.933 24.3362C34.6878 24.2245 32.2739 24.2297 32.0407 24.3424ZM20.8131 25.0715C19.7064 25.3754 18.5662 26.279 18.055 27.2573C17.5797 28.1669 17.5625 28.3355 17.5625 32.0928V35.4995H16.4048C14.6773 35.4995 14.0989 35.7401 13.6837 36.6318C13.5025 37.0208 13.5015 37.0399 13.5008 40.1389C13.5002 42.2797 13.5284 43.3495 13.5907 43.5575C13.708 43.9493 14.1342 44.4434 14.5435 44.6623C14.8601 44.8316 14.9365 44.8359 18.0205 44.8583C21.6038 44.8844 21.7065 44.8712 22.2662 44.3114C22.771 43.8066 22.8248 43.6047 22.8596 42.0815L22.8905 40.7339H25.6987H28.5071L28.6988 40.5421C28.9526 40.2884 28.9526 39.9294 28.6988 39.6757L28.5071 39.4839H25.6991H22.8911L22.8625 38.2144C22.8346 36.9767 22.828 36.9342 22.6005 36.5208C22.3524 36.07 21.903 35.7187 21.3934 35.5771C21.2415 35.5349 20.5973 35.5002 19.9618 35.5L18.8063 35.4995L18.829 32.0425C18.8515 28.597 18.8522 28.5839 19.0398 28.1167C19.2998 27.469 20.0788 26.6899 20.7266 26.4299C21.1947 26.2419 21.2004 26.2416 25.089 26.2026L28.9827 26.1636L29.132 25.9791C29.3392 25.7231 29.3248 25.3333 29.1005 25.1225L28.9196 24.9526L25.0575 24.9596C22.0845 24.965 21.1073 24.9908 20.8131 25.0715ZM34.125 25.5254C34.125 25.7097 34.4444 27.2414 34.5073 27.359C34.5556 27.4494 34.7693 27.5757 35.0031 27.6523C35.6752 27.8724 36.3157 28.2252 36.928 28.7126C37.2451 28.9649 37.5498 29.1714 37.6052 29.1714C37.6605 29.1714 38.0878 29.0345 38.5548 28.8672L39.4038 28.5631L39.6941 29.0708C39.8538 29.35 39.9841 29.6011 39.9836 29.6288C39.9832 29.6565 39.684 29.9253 39.3188 30.2261C38.9485 30.5311 38.6328 30.8558 38.6051 30.9603C38.5777 31.0633 38.5956 31.3662 38.6448 31.6333C38.7607 32.2619 38.7587 33.0893 38.6397 33.7833C38.5727 34.174 38.5691 34.3745 38.6273 34.4684C38.6725 34.5414 38.9876 34.8424 39.3274 35.1373C39.6673 35.4322 39.9453 35.7135 39.9453 35.7623C39.9453 35.8112 39.8248 36.0675 39.6774 36.332L39.4095 36.813L38.5577 36.5078C38.0891 36.34 37.6606 36.2026 37.6055 36.2026C37.5503 36.2026 37.2632 36.3959 36.9674 36.6322C36.3724 37.1074 35.6305 37.5194 35.0031 37.7229C34.7682 37.7992 34.5559 37.9243 34.5073 38.015C34.4444 38.1326 34.125 39.6644 34.125 39.8487C34.125 39.8629 33.8438 39.8745 33.5 39.8745C33.1562 39.8745 32.875 39.8629 32.875 39.8487C32.875 39.6644 32.5556 38.1326 32.4927 38.015C32.4441 37.9243 32.2318 37.7992 31.9969 37.7229C31.3687 37.5191 30.6266 37.1058 30.0377 36.6315C29.7448 36.3956 29.4577 36.2026 29.3997 36.2026C29.3417 36.2026 28.9109 36.34 28.4423 36.5078L27.5905 36.813L27.3226 36.332C27.1752 36.0675 27.0547 35.8112 27.0547 35.7623C27.0547 35.7135 27.3327 35.4322 27.6726 35.1373C28.0124 34.8424 28.3275 34.5414 28.3727 34.4684C28.4309 34.3745 28.4273 34.174 28.3603 33.7833C28.2413 33.0893 28.2393 32.2619 28.3552 31.6333C28.4044 31.3662 28.4227 31.0633 28.3959 30.9603C28.3682 30.8538 28.0599 30.5392 27.6814 30.2311C27.3152 29.933 27.0156 29.6582 27.0156 29.6204C27.0156 29.5825 27.147 29.3294 27.3076 29.0579L27.5995 28.5643L28.4469 28.8679C28.913 29.0348 29.3395 29.1714 29.3948 29.1714C29.4502 29.1714 29.7549 28.9649 30.072 28.7126C30.6184 28.2776 31.352 27.8549 31.7812 27.7276C32.4758 27.5215 32.5553 27.4119 32.7175 26.437C32.891 25.3943 32.8024 25.4995 33.5062 25.4995C33.8466 25.4995 34.125 25.5112 34.125 25.5254ZM32.6678 29.0479C30.7774 29.5065 29.496 31.3915 29.8141 33.2462C30.0919 34.8662 31.3208 36.0951 32.9409 36.3729C35.3533 36.7866 37.5938 34.5426 37.1866 32.1206C36.8268 29.9802 34.7227 28.5495 32.6678 29.0479ZM34.3977 30.4002C34.9489 30.576 35.6127 31.2495 35.8051 31.8284C36.1263 32.7947 35.9191 33.7179 35.225 34.412C34.7226 34.9144 34.1968 35.1347 33.5 35.1347C32.8032 35.1347 32.2774 34.9144 31.775 34.412C31.4548 34.0919 31.2993 33.8595 31.1949 33.5456C30.7037 32.0683 31.548 30.5703 33.0416 30.2695C33.4435 30.1886 33.8598 30.2287 34.3977 30.4002ZM21.3906 36.9839C21.5415 37.1347 21.5469 37.2443 21.5469 40.1783C21.5469 43.0529 21.5388 43.2265 21.3976 43.401L21.2483 43.5854L18.2302 43.6076L15.212 43.6298L14.981 43.3988L14.75 43.1678V40.2036C14.75 37.323 14.7546 37.2335 14.912 37.0335L15.0738 36.8276H18.1541C21.1302 36.8276 21.2397 36.8329 21.3906 36.9839ZM19.4538 38.2526C19.35 38.3026 19.0087 38.7847 18.642 39.3996C18.294 39.9831 17.9666 40.5068 17.9145 40.5633C17.8372 40.6474 17.728 40.6081 17.3201 40.3493C17.017 40.157 16.7258 40.0319 16.58 40.0315C16.0981 40.03 15.8169 40.6631 16.1367 41.0294C16.3584 41.2833 17.8863 42.2183 18.0795 42.2183C18.177 42.2183 18.3423 42.1392 18.4468 42.0425C18.7245 41.7855 20.375 39.0031 20.375 38.7921C20.375 38.5752 19.9745 38.1537 19.7755 38.1611C19.697 38.164 19.5523 38.2051 19.4538 38.2526ZM38.0027 39.6458C37.7277 39.8621 37.7153 40.3176 37.9777 40.564L38.1585 40.7339H42.2995C46.8677 40.7339 46.9412 40.7407 47.514 41.2144C47.9455 41.5712 48.1858 42.1293 48.1867 42.7768L48.1875 43.2962L46.8789 43.3262C45.4484 43.359 45.2057 43.4245 44.7216 43.9086C44.2234 44.4068 44.1702 44.618 44.1389 46.2222L44.1104 47.687H43.3798C42.7264 47.687 42.6269 47.7063 42.4366 47.87C42.1634 48.105 42.1509 48.4699 42.4069 48.7423C42.5777 48.9242 42.6402 48.937 43.3573 48.937H44.125V49.8707C44.125 50.3842 44.1634 50.9833 44.2103 51.2022C44.3263 51.7429 44.6944 52.2087 45.2138 52.4722L45.6374 52.687H48.7735C52.3982 52.687 52.418 52.684 52.9765 52.063C53.1623 51.8563 53.356 51.5478 53.4071 51.3773C53.4722 51.1603 53.5 50.1314 53.5 47.9458V44.8244L53.2852 44.4008C53.0217 43.8814 52.5559 43.5133 52.0152 43.3973C51.7963 43.3504 51.1309 43.312 50.5365 43.312H49.4557L49.4223 42.5503C49.3951 41.9269 49.3507 41.7088 49.1779 41.3492C48.9022 40.7755 48.4624 40.2865 47.9423 39.9754C47.1361 39.4932 47.0316 39.4839 42.4004 39.4839C38.278 39.4839 38.2052 39.4865 38.0027 39.6458ZM52.088 44.846C52.2453 45.0459 52.25 45.1361 52.25 47.9673C52.25 49.9376 52.2219 50.9445 52.1633 51.0732C52.1155 51.1779 51.9909 51.3026 51.8862 51.3503C51.7575 51.4089 50.7506 51.437 48.7803 51.437C45.9491 51.437 45.8589 51.4323 45.659 51.2751L45.4531 51.1132V48.0329C45.4531 45.0568 45.4584 44.9473 45.6094 44.7964C45.7603 44.6454 45.8698 44.6401 48.8459 44.6401H51.9262L52.088 44.846ZM34.125 45.2903C33.9056 45.4052 30.9232 47.5844 30.5898 47.8734C30.3371 48.0925 30.3034 48.445 30.5117 48.6895C30.6502 48.8519 33.8176 51.1944 34.1116 51.3517C34.3655 51.4876 34.5859 51.4519 34.7973 51.2406C34.9503 51.0876 34.9884 50.9797 34.9695 50.7523C34.9468 50.4783 34.884 50.414 33.9391 49.6987L32.9328 48.937H36.6184H40.304L40.4957 48.7452C40.7832 48.4578 40.7311 47.9571 40.3967 47.7939C40.3203 47.7565 38.6248 47.7085 36.6287 47.687L32.9997 47.6479L33.7381 47.1065C34.7604 46.3571 34.9844 46.1369 34.9844 45.8812C34.9844 45.5623 34.9105 45.4276 34.6663 45.3013C34.3972 45.1622 34.3707 45.1616 34.125 45.2903ZM50.1406 46.0685C50.0198 46.129 49.6874 46.5926 49.2691 47.2838C48.8973 47.8984 48.5732 48.4211 48.5491 48.4453C48.5248 48.4694 48.2645 48.3439 47.9705 48.1662C47.6765 47.9886 47.3491 47.8433 47.2431 47.8433C46.813 47.8433 46.5309 48.2869 46.7006 48.6965C46.7912 48.9153 48.4438 50.0308 48.6772 50.0308C49.0222 50.0308 49.208 49.8129 50.0656 48.4026C50.5533 47.6008 50.9673 46.8453 50.9859 46.7237C51.0318 46.4226 50.8693 46.1487 50.5865 46.0501C50.4573 46.0051 50.3481 45.9688 50.3438 45.9694C50.3395 45.9701 50.248 46.0146 50.1406 46.0685Z" fill="white"/>
<defs>
<linearGradient id="paint0_linear_37_12734" x1="0.5" y1="34.0654" x2="65.5" y2="34.0654" gradientUnits="userSpaceOnUse">
<stop stop-color="#00469F"/>
<stop offset="1" stop-color="#1E79D6"/>
</linearGradient>
</defs>
</svg>

<svg xmlns="http://www.w3.org/2000/svg" width="66" height="66" fill="none" xmlns:v="https://vecta.io/nano"><rect x=".5" y=".687" width="65" height="65" rx="8" fill="url(#A)"/><path fill-rule="evenodd" d="M14.764 12.776c-.378.109-1.074.818-1.178 1.2-.055.201-.085 1.428-.086 3.448L13.5 20.56l.218.418c.277.53.74.889 1.298 1.005.286.059 1.406.081 3.42.065 2.897-.023 3.004-.029 3.307-.193a2.5 2.5 0 0 0 .946-.964c.118-.225.148-.505.173-1.582l.03-1.309h.74c.721 0 .747-.006.978-.238.199-.199.23-.278.189-.488-.084-.437-.277-.524-1.15-.524h-.773v-1.09c0-.599-.038-1.269-.085-1.488-.113-.528-.483-.997-.999-1.267l-.418-.218-3.175.007-3.434.082zm6.577 1.323l.206.162v3.08l-.156 3.236c-.151.151-.26.156-3.236.156h-3.08l-.162-.206c-.157-.2-.162-.29-.162-3.121 0-3.045.018-3.222.341-3.378.105-.051 1.252-.083 3.106-.086 2.859-.005 2.944-.001 3.145.157zm-2.008 1.42c-.105.097-.479.66-.831 1.252l-.64 1.077-.287-.172-.482-.305c-.319-.216-.522-.248-.768-.121-.252.13-.326.263-.326.584 0 .306.102.405 1.011.978.834.527 1.165.623 1.428.417.163-.128 1.843-2.899 1.903-3.14.05-.2-.073-.494-.272-.647s-.528-.116-.736.076zm7.371 1.386c-.239.238-.235.65.007.899.15.154.281.157 10.176.195l10.024.039.382.236c.575.356.834.825.878 1.596l.036.615-1.357.026c-1.326.025-1.366.031-1.732.246-.468.275-.8.726-.909 1.233-.046.215-.084.969-.084 1.676v1.285h-2.877-2.877l-.17.181c-.233.248-.223.632.022.877l.192.192h2.846 2.846l.03 1.113c.029 1.056.042 1.135.26 1.531a1.95 1.95 0 0 0 1.174.94c.202.056 1.344.087 3.246.087 3.25.001 3.458-.024 4.009-.48a2.2 2.2 0 0 0 .487-.647c.184-.395.184-.402.185-3.512.001-2.22-.026-3.208-.094-3.437-.127-.429-.774-1.076-1.203-1.203-.192-.057-.81-.095-1.534-.095h-1.212l-.032-.723c-.026-.601-.072-.808-.27-1.231a3.23 3.23 0 0 0-1.514-1.517l-.508-.241-10.136-.02c-10.064-.02-10.137-.019-10.293.137zm25.182 4.931c.105.048.229.172.277.277.059.129.087 1.136.087 3.106 0 2.831-.005 2.921-.162 3.121l-.162.206h-3.08c-2.976 0-3.086-.005-3.236-.156s-.156-.26-.156-3.236v-3.08l.206-.162c.2-.157.29-.162 3.121-.162 1.97 0 2.977.028 3.106.087zm-1.842 1.473c-.107.084-.464.603-.792 1.152l-.668 1.11c-.058.09-.164.051-.572-.215-.614-.4-.978-.436-1.226-.12-.358.455-.199.701.899 1.402.921.587 1.179.647 1.47.339.098-.104.553-.81 1.011-1.569.91-1.509.977-1.724.64-2.061-.232-.232-.501-.245-.764-.038zm-18.004 1.033c-.218.105-.304.331-.455 1.196-.14.804-.228 1.055-.369 1.055-.169.001-1.171.543-1.6.866-.224.168-.429.306-.457.306s-.449-.146-.937-.324c-1.209-.442-1.17-.462-2.027 1.034-.366.639-.664 1.223-.663 1.3.005.248.181.46.847 1.022l.654.552v1.339 1.339l-.654.554c-.759.642-.844.74-.847.981-.001.098.297.7.663 1.339.855 1.493.814 1.472 2.021 1.033.487-.178.91-.323.939-.323s.236.138.46.306c.424.319 1.431.865 1.596.866.151.001.229.221.366 1.035.152.901.234 1.106.489 1.222s2.612.116 2.866 0 .317-.277.481-1.241c.077-.451.178-.859.226-.906s.28-.165.516-.263c.35-.144.999-.54 1.593-.969.057-.042.442.06 1.004.265 1.225.447 1.173.473 2.04-1.016.372-.638.675-1.225.673-1.304-.005-.256-.181-.468-.847-1.021l-.654-.543-.01-1.344-.01-1.344.677-.563c.647-.537.846-.782.846-1.037 0-.064-.299-.638-.665-1.276-.859-1.499-.814-1.476-2.051-1.025-.562.205-.946.307-1.004.265-.594-.43-1.243-.825-1.593-.969-.236-.098-.469-.216-.516-.263s-.149-.454-.226-.906c-.164-.964-.226-1.125-.481-1.241-.245-.112-2.659-.107-2.892.006zm-11.228.729c-1.107.304-2.247 1.207-2.758 2.186-.475.91-.492 1.078-.492 4.835V35.5h-1.158c-1.728 0-2.306.241-2.721 1.132-.181.389-.182.408-.183 3.507-.001 2.141.028 3.211.09 3.419.117.392.543.886.953 1.105.317.169.393.174 3.477.196 3.583.026 3.686.013 4.246-.547.505-.505.559-.707.593-2.23l.031-1.348h2.808 2.808l.192-.192c.254-.254.254-.613 0-.866l-.192-.192h-2.808-2.808l-.029-1.27c-.028-1.238-.035-1.28-.262-1.694a2.01 2.01 0 0 0-1.207-.944c-.152-.042-.796-.077-1.432-.077h-1.155l.023-3.457c.023-3.445.023-3.459.211-3.926.26-.648 1.039-1.427 1.687-1.687.468-.188.474-.188 4.362-.227l3.894-.039.149-.184c.207-.256.193-.646-.032-.857l-.181-.17-3.862.007c-2.973.005-3.95.031-4.244.112zm13.312.454c0 .184.319 1.716.382 1.834.048.09.262.217.496.293.672.22 1.313.573 1.925 1.06.317.252.622.459.677.459s.483-.137.95-.304l.849-.304.29.508c.16.279.29.53.29.558s-.3.297-.665.597c-.37.305-.686.63-.714.734s-.01.406.04.673c.116.629.114 1.456-.005 2.15-.067.391-.071.591-.012.685.045.073.36.374.7.669s.618.576.618.625-.12.305-.268.57l-.268.481-.852-.305c-.469-.168-.897-.305-.952-.305s-.342.193-.638.43c-.595.475-1.337.887-1.964 1.091-.235.076-.447.201-.496.292-.063.118-.382 1.649-.382 1.834 0 .014-.281.026-.625.026s-.625-.012-.625-.026c0-.184-.319-1.716-.382-1.834-.049-.091-.261-.216-.496-.292-.628-.204-1.37-.617-1.959-1.091-.293-.236-.58-.429-.638-.429s-.489.137-.957.305l-.852.305-.268-.481c-.147-.264-.268-.521-.268-.57s.278-.33.618-.625.655-.596.7-.669c.058-.094.055-.294-.012-.685-.119-.694-.121-1.521-.005-2.15.049-.267.067-.57.041-.673s-.336-.421-.715-.729c-.366-.298-.666-.573-.666-.611s.131-.291.292-.562l.292-.494.847.304c.466.167.893.303.948.303s.36-.206.677-.459c.546-.435 1.28-.858 1.709-.985.695-.206.774-.316.936-1.291.173-1.043.085-.937.789-.937.34 0 .619.012.619.026zm-1.457 3.522c-1.89.459-3.172 2.344-2.854 4.198a3.79 3.79 0 0 0 3.127 3.127c2.412.414 4.653-1.83 4.246-4.252-.36-2.14-2.464-3.571-4.519-3.073zm1.73 1.352c.551.176 1.215.849 1.407 1.428.321.966.114 1.89-.58 2.584-.502.502-1.028.723-1.725.723s-1.223-.22-1.725-.723c-.32-.32-.476-.553-.58-.866-.491-1.477.353-2.975 1.847-3.276.402-.081.818-.041 1.356.131zm-13.007 6.584c.151.151.156.26.156 3.194 0 2.875-.008 3.048-.149 3.223l-.149.184-3.018.022-3.018.022-.231-.231-.231-.231v-2.964c0-2.881.005-2.97.162-3.17l.162-.206h3.08c2.976 0 3.086.005 3.236.156zm-1.937 1.269c-.104.05-.445.532-.812 1.147-.348.584-.675 1.107-.727 1.164-.077.084-.186.045-.594-.214-.303-.192-.594-.317-.74-.318-.482-.002-.763.632-.443.998.222.254 1.75 1.189 1.943 1.189.098 0 .263-.079.367-.176.278-.257 1.928-3.039 1.928-3.25 0-.217-.401-.638-.599-.631a1 1 0 0 0-.322.092zm18.549 1.393c-.275.216-.287.672-.025.918l.181.17H42.3c4.568 0 4.642.007 5.215.48.431.357.672.915.673 1.562l.001.519-1.309.03c-1.431.033-1.673.098-2.157.582-.498.498-.551.709-.583 2.314l-.029 1.465h-.731c-.653 0-.753.019-.943.183-.273.235-.286.6-.03.872.171.182.233.195.95.195h.768v.934c0 .514.038 1.113.085 1.331.116.541.484 1.007 1.004 1.27l.424.215h3.136c3.625 0 3.645-.003 4.203-.624.186-.207.38-.515.431-.686.065-.217.093-1.246.093-3.431v-3.121l-.215-.424c-.264-.519-.729-.887-1.27-1.003-.219-.047-.884-.085-1.479-.085h-1.081l-.033-.762c-.027-.623-.072-.842-.244-1.201-.276-.574-.715-1.063-1.236-1.374-.806-.482-.911-.492-5.542-.492-4.122 0-4.195.003-4.398.162zm14.085 5.2c.157.2.162.29.162 3.121 0 1.97-.028 2.977-.087 3.106a.65.65 0 0 1-.277.277c-.129.059-1.136.087-3.106.087-2.831 0-2.921-.005-3.121-.162l-.206-.162v-3.08c0-2.976.005-3.086.156-3.236s.26-.156 3.236-.156h3.08l.162.206zm-17.963.444c-.219.115-3.202 2.294-3.535 2.583-.253.219-.286.572-.078.816.139.162 3.306 2.505 3.6 2.662.254.136.474.1.686-.111a.51.51 0 0 0 .172-.488c-.023-.274-.085-.338-1.03-1.054l-1.006-.762h3.686 3.686l.192-.192c.288-.287.235-.788-.099-.951-.076-.037-1.772-.085-3.768-.107L33 47.648l.738-.541c1.022-.749 1.246-.97 1.246-1.225 0-.319-.074-.454-.318-.58-.269-.139-.296-.14-.541-.011zm16.016.778c-.121.06-.453.524-.871 1.215l-.72 1.162c-.024.024-.285-.101-.579-.279s-.621-.323-.727-.323c-.43 0-.712.444-.542.853.091.219 1.743 1.334 1.977 1.334.345 0 .531-.218 1.388-1.628.488-.802.902-1.557.92-1.679a.6.6 0 0 0-.399-.674 4.79 4.79 0 0 0-.243-.081c-.004.001-.096.045-.203.099z" fill="#fff"/><defs><linearGradient id="A" x1=".5" y1="34.065" x2="65.5" y2="34.065" gradientUnits="userSpaceOnUse"><stop stop-color="#00469f"/><stop offset="1" stop-color="#1e79d6"/></linearGradient></defs></svg>
